X: 1
T:Racketty Jack's -- Reel
M:2/4
L:1/16
R:reel
B:Ryan's Mammoth Collection
N:300
Z:Contributed by Ray Davies,  ray:davies99.freeserve.co.uk
K:G
vDGB2 cBAB | dBcA BGFG | DGB2 cBAB | dBcA BGFE |
DGB2 cBAB | dBcA BGFG | DGB2 cBAB | dBcA BGG2 |]
|]vgdBd gdBd | eafa gfed | cBcd edef | gfge d^def |
gdBd gdBd | eafa gfed | cBcd edef | gdcA G2z2 |]
